X:1
T:Title
%%score { 1 | 2 } 3 ( 4 5 )
L:1/8
Q:1/4=70
M:4/4
K:Db
V:1 treble nm="Piano" snm="Pno."
V:2 bass 
V:3 perc stafflines=1 nm="Hand Clap" snm="Hd. Clp."
K:none
I:percmap E B 39 normal
V:4 perc nm="Drumset" snm="D. Set"
K:none
I:percmap A A 41 normal
I:percmap F F 36 normal
I:percmap ^a a 49 x
I:percmap ^g g 42 x
I:percmap c c 40 normal
V:5 perc 
K:none
I:percmap A A 41 normal
I:percmap F F 35 normal
I:percmap ^g g 42 x
I:percmap c c 40 normal
V:1
"^\n" F3/2B,3/2C3/2D3/2 G,2 | D3/2A,3/2E3/2=D3/2 B,2 | F3/2B,3/2C3/2D3/2 G,2 | %3
 D3/2A,3/2E3/2=D3/2 B,2 |[Q:1/4=140]"^\n" [B,,B,][A,,A,] D/B,/D/F/ [G,G][E,E] B/B,/G,/D/ | %5
 [__B,,=A,][F,,F,] E/G,/D/B,/ [B,,A,]C/B,/ A,/C/B,/F,/ | %6
 [G,,G,][G,,G,] E/C/=A,/E/ [F,,F,][F,,F,] E/C/A,/C/ | %7
 [=A,,=A,][A,,A,] E/C/A,/C/ [F,,F,]C/A,/ B,/A,/F,/A,/ | %8
 B,,/D,/G,/B,/ D/B,/D/F/ D/D/B,/F/ B/B,/G,/D/ | G/G,/D/B,/ F/G/D/B,/ E/F,/C/B,/ __B,/C/_B,/F,/ | %10
 B,,/D,/G,/B,/ D/B,/D/F/ D/D/B,/F/ B/B,/G,/D/ | G/G,/D/B,/ F/G/D/B,/ E/F,/C/B,/ __B,/C/_B,/F,/ | %12
 B,,/D,/G,/B,/ D/B,/D/F/ D/D/B,/F/ B/B,/G,/D/ | G/G,/D/B,/ F/G/D/B,/ E/F,/C/B,/ __B,/C/_B,/F,/ | %14
 B,,/D,/G,/B,/ D/B,/D/F/ D/D/B,/F/ B/B,/G,/D/ | G/G,/D/B,/ F/G/D/B,/ E/F,/C/B,/ A/__B/G/E/ | %16
!f! !^!B,/F/B/B,/ !^!B,/F/B/B,/ !^!B,/F/B/B,/ !^!B,/F/B/B,/ | %17
 !^!B,/F/B/B,/ !^!B,/F/B/B,/ !^!B,/F/B/B,/ !^!B,/F/B/B,/ | %18
 G/G,/D/B,/ F/G,/D/B,/ A/A,/E/C/ A/A,/E/C/ | %19
 G/G,/D/B,/ F/G,/D/B,/ !>!__B,/C/!>!B,/C/ !>!B,/C/_B,/F,/ | z8 | z8 | z8 | z8 | z8 | z8 | z8 | z8 | %28
 z8 | z8 | z8 | z8 | z8 |] %33
V:2
 B,,3/2__A,,3/2 G,,3- G,,2 | D,3/2A,,3/2 B,,3- B,,2 | z3/2 __A,,3/2 G,,3- G,,2 | %3
 D,3/2A,,3/2 B,,3- B,,2 | z8 | z8 | z8 | z8 | z8 | z8 | z8 | z8 | z8 | z8 | z8 | z8 | z8 | z8 | %18
 z8 | z8 | z8 | z8 | z8 | z8 | z8 | z8 | z8 | z8 | z8 | z8 | z8 | z8 | z8 |] %33
V:3
[K:C] z8 | z8 | z8 | z8 | z2 E2 z2 E2 | z2 E2 z2 EE | z2 E2 z2 E2 | z2 E2 z2 EE | z8 | z8 | z8 | %11
 z8 | z8 | z8 | z8 | z8 | z8 | z8 | z8 | z8 | z8 | z8 | z8 | z8 | z8 | z8 | z8 | z8 | z8 | z8 | %30
 z8 | z8 | z8 |] %33
V:4
[K:C] z8 | z8 | z8 | z8 | z8 | z8 | z8 | z8 |!ff! [FA]2 !^![cc]2 z [FA] !^![cc]2 | %9
!ff! [FA]2 !^![cc]2 z [FA] !^![cc]2 |!ff! [FA]2 !^![cc]2 z [FA] !^![cc]2 | %11
!ff! [FA]2 !^![cc]2 z [FA] !^![cc]2 | [FA]4 [cc^g]4 | z8 | [FA]4 [cc^g]4 | z8 | %16
 [cc^g^a]2 [cc^g]2 [cc^g]2 [cc^g]2 | [cc^g^a]2 [cc^g]2 [cc^g]2 [cc^g]2 | %18
 !>![Fcc^g^a][Fcc^g^a]!>![Fcc^g^a][Fcc^g^a] !>![Fcc^g^a][Fcc^g^a]!>![Fcc^g^a][Fcc^g^a] | z8 | z8 | %21
 z8 | z8 | z8 | z8 | z8 | z8 | z8 | z8 | z8 | z8 | z8 | z8 |] %33
V:5
[K:C] x8 | x8 | x8 | x8 | x8 | x8 | x8 | x8 | x8 | x8 | x8 | x8 | F4 z2 z [FFA] | %13
 z [FFA][FFA] z [cc^g]4 | F4 z2 z [FFA] | z [FFA][FFA] z [cc^g]4 | x8 | x8 | FFFF FFFF | x8 | x8 | %21
 x8 | x8 | x8 | x8 | x8 | x8 | x8 | x8 | x8 | x8 | x8 | x8 |] %33

